X:1
T:Mozarts Military Waltz. CJF.007
T:Mozarts Military Waltz. CJF.007
T:Mozart
C:Mozart
L:1/8
Q:3/4=50
M:3/4
K:D
V:1 treble 
V:1
"^p" A2 | A2 A2 A2 | A2 A2 A2 |"^f" (A6 | d2) z2"^p" A2 | A2 A2 A2 | A2 A2 A2 |"^f" (A6 | %8
 e2) z2 A2 | f2 f2 f2 | g2 e2 c2 | d2 d2 d2 | d2 c2 B2 | A2 d2 f2 |"^f" a2 g2 e2 | (e6 | d2) z2 |: %17
 A2 | (dcdcdc) | (dcdcde) | f4 d2 | A4 A2 | G4 e2 | dcBABc | d2 d2 f2 | d2 z2 :|"^p" (df) | %27
 a2 ^gabaf | d4 (ed) | cdefga | (g2 f2) (df) | g2 ^gabaf | d4 (ed) | ABcdef | d4 |:"^f" F2 | %36
 f2 (f>f) f2 | f4 e2 | d2 c2 B2 | ^A2 c2 F2 | f2 (f>f) f2 | f4 e2 | d2 c2 B2 | f4 (df) | %44
 a2 ^gabaf | d4 (ed) | cdefga | (g2 f2) (df) | x6 |: A2 | (f2 d2) .A2 | (d2 A2) .F2 | (G2 e2) .c2 | %53
 (d2 f2) .A2 | (f2 d2) .A2 | (G2 e2) .c2 | d2 z2 :: e2 | e2 d2 c2 | c2 B2 A2 | (dc) d2 e2 | f4 d2 | %62
 e2 d2 c2 | c2 B2 A2 | (de) f2 e2 | d4 :| %66

